X:1
T:Title
%%score ( 1 2 ) { 3 | 4 }
L:1/8
Q:1/4=115
M:3/4
K:G
V:1 treble nm="Grand Piano, Unnamed-000"
V:2 treble 
V:3 bass nm="Choir Pad, Park Street, LM"
V:4 bass 
V:1
 [DG]2 [DG]2 [DG]2 | G3 A [DB]2 | [EA]2 [DG]2 [DF]2 | [DG]6 | [DB]2 [DB]2 [DB]2 | z2 z ^c [Dd]2 | %6
w: By~Frederick~Marc~Antoine~Venua,~circa~1810 * *||||||
 [FA]3 [DF] [EG][^CE] | D4 D2 | [DA]4 [DA]2 | [DB]4 [DB]2 | [Dc]4 [Dc]2 | [DB]6 | %12
w: ||||||
 [Ed]2 [EB]2 [Ee]2 | [Ec]4 [Ec]2 | c2 A2 [Dd]2 | [DB]6 | [DG]2 [DG]2 [DG]2 | G2 F2 [DG]2 | %18
w: ||||||
 [EA]2 [DG]2 [DF]2 | [DG]6- | [DG]2 z2 z2 |] %21
w: |||
V:2
 x6 | D4 z2 | x6 | x6 | x6 | [DB]4 z2 | x6 | x6 | x6 | x6 | x6 | x6 | x6 | x6 | D4 z2 | x6 | x6 | %17
 D4 z2 | x6 | x6 | x6 |] %21
V:3
 B,2 D2 B,2 | B,3 C D2 | C2 B,2 A,2 | B,6 | G,2 G,2 G,2 | G,4 A,B, | A,4 A,G, | F,4 F,2 | F,4 F,2 | %9
 G,4 G,2 | A,4 A,2 | G,6 | ^G,2 G,2 G,2 | A,4 A,2 | F,4 F,2 | G,6 | B,2 D2 B,2 | A,4 G,2 | %18
 C2 B,2 A,2 | B,6- | B,2 z2 z2 |] %21
V:4
 G,,2 B,,2 D,2 | G,4 G,2 | C,2 D,2 D,2 | G,,6 | G,,2 B,,2 D,2 | z2 z2 F,G, | z2 z2 A,,2 | D,4 D,2 | %8
 D,4 D,2 | D,4 D,2 | D,4 D,2 | z6 | E,2 E,2 E,2 | z6 | D,4 D,2 | z6 | G,,2 B,,2 G,,2 | %17
 D,3 C, B,,2 | C,2 D,2 D,2 | G,,6- | G,,2 z2 z2 |] %21

